X: 4299
T: NEGRO BREAK DOWN
%R: hornpipe, reel
B: James Kerr "Merry Melodies" v.4 p.31 #299
Z: 2016 John Chambers <jc:trillian.mit.edu>
M: C|
L: 1/8
K: G
|:\
G2B>d G>dB>d | G2c>e G>ec>e |\
[1 G2B>d G>dB>d | D2F>A D>AF>A :|\
[2 d>gf>e d>cB>A | G2B2G2 z2 |:\
D2F>A D>AF>A |
G>Bd>B g>dB>G |\
D2F>A D>AF>A | G>gf>e d>cB>A |\
G2B>d G>dB>d | c2e>g c>ge>g |\
d>gf>e d>cB>A | G2B2G2 z2 :|

%%sep 1 1 500
%%sep 1 1 500

